X:200
T:Home Sweet Home
C:Jesse McReynolds
N:
R:bluegrass
L:1/8
Q:1/4=215
M:4/4
K:D
z8 | z2 DA D2 E2 | "D"{=F}^FA DF AD FD | "G"GA BG AB GD | "D"FA DF AD FA | D2 {^G}Ae AF eA | 
"A"Ee AE eA Fe | {F}Ge AF eA Ee | "D"{=F}^Fe AF eA Fe | A2 DA D2 E2 | {=F}^FA DF AD FD | 
"G"GA BG AB GD | "D"FA DF AD FA | D2 {^G}Ae AF eA | "A"Ee AE eA Fe | {F}Ge AF eA Ee | 
"D"D2 {=F}^Fe AE eA | D2 AA B2 c2 | "G"de "BRIDGE"gd eg de | ce Ac eA Be | "D"Ae dA eA GA | 
Fe AG eA Fe | "A"Ee AE eA Fe | {F}Ge AF eA Ee | "D"Fe AF eA Fe | =ce fc ef ce | 
"G"de gd eg de | ce Ac eA Be | "D"Be AA eA Ge | AF eA Ge Fe | "A"Ee AE eA Fe | 
{F}Ge AF eA Ee | "D"D2 dF Ad FD | d4 [f4A4D4A,4] | 


